X: 38735
T: Stride, The
R: reel
M: 4/4
K: Ddorian
DEFE D~A,3|G,~A,3 CDEC|DEFE D~A,3|CG,GA, FA,EA,|
DEFE D~A,3|G,~A,3 CDEC|FCEC DCA,G,|A,B,CE DEFE|
DEFE D~A,3|_B,A,~A,2 C3E|DEFE D~A,3|CG,GA, FA,EA,|
DEFE D~A,3|G,~A,3 CDEC|FCEC DCA,G,|A,B,CE D^CDE||
|:~F2EF DEFG|A2 (3DDD A,D_BD|AE~E2 A,E~E2|FE^CE AEA,E|
F2EF DEFG|A2 (3DDD A,D_BD|AE~E2 A,E~E2|FE^CE DEFE:|

